X: 12641
T: Farmer's Daughter, The
R: jig
M: 6/8
K: Adorian
|:c2A BAG|A2B c2d|~e3 fed|f/g/af ged|
c2A BAG|A2B c2d|~e3 dcB|ABA A2B:|
|:c3 cBc|ded dcd|~e3 fed|faf ged|
c3 cBc|ded dcd|~e3 dcB|ABA A2B:|

